X:1
T:Der Leiermann
T:Der Leiermann
T:From Schubert's Winterreise, transposed for low voice
T:Franz Schubert Original in A-minor 
T:Wilhelm Müller
C:Franz Schubert
Z:Wilhelm Müller
%%score 1 { ( 2 5 ) | ( 3 4 ) }
L:1/8
Q:1/8=90
M:3/4
K:Eb
V:1 bass nm="Voice"
V:2 treble nm="Piano"
V:5 treble 
V:3 bass 
V:4 bass 
V:1
 z6 | z6 | z6 | z6 | z6 | z6 | z6 | z6 |!p! C,G,, C,D, E,C, | G,,C, =B,,D, G,,2 | z2 z4 | z6 | %12
w: ||||||||Drü- ben hin- term Dor- fe|Steht ein Lei- er- mann,|||
 C,G,, C,D, E,C, | G,,C, =B,,D, G,,2 | z6 | z6 | C,G, F,E, D,G,, | C,>E, D,G,, D,2 | z6 | z6 | %20
w: und mit star- ren Fing- ern|dreht er, was er kann|||Bar- fuß auf dem Ei- se|wankt er hin und her,|||
 C,G, F,E, D,G,, | C,>E, D,G,, D,2 | z6 | z6 | C,D, E,F, G,>F, | E,D, C,G,, C,2 | z6 | z6 | z6 | %29
w: und sein klei- ner Tel- ler|bleibt ihm im- mer leer,|||und sein klei- ner Tel- ler|bleibt ihm im- mer leer.||||
 z6 | C,G,, C,D, E,C, | G,,C, =B,,D, G,,2 | z6 | z6 | C,G,, C,D, E,C, | G,,C, =B,,D, G,,2 | z6 | %37
w: |Kei- ner mag ihn hö- ren,|kei- ner sieht ihn an,|||und die Hun- de knu- rren|um den al- ten Mann||
 z6 | C,G, F,E, D,G,, | C,>E, D,G,, D,2 | z6 | z6 | C,G, F,E, D,G,, | C,E, D,G,, D,2 | z6 | z6 | %46
w: |Und er läßt es ge- hen|al- les, wie es will,|||dreht, und sei- ne Lei- er|steht ihm nim- mer still,|||
 C,D, E,F, G,>F, | E,D, C,G,, C,2 | z6 | z6 | z6 | z6 | G,,>G,, G,,G,, C,G,, | %53
w: dreht, und sei- ne Lei- er|steht ihm nim- mer still.|||||Wun- der- li- cher Al- ter,|
 z2 G,,G,, C,(E,/D,/) | C,4 z2 |!<(! G,,>G,!p! F,A,!mp! G,G,, | %56
w: soll ich mit dir *|gehn?|Willst zu mei- nen Lied- ern|
!mf! G,,>G,!f! F,!<)!A,"^dim." G,2- | G,4 z2 | z6 | z6 | z6 |] %61
w: dei- ne Lei- er drehn?|_||||
V:2
 z6 | z6 |!pp! (C/E/D/F/ EC D=B,) | (CE/) z/ !>![G,=B,D]4 | (CE/) z/ !>![G,=B,D]4 | %5
 (C/G/F/A/ GC DE) | (!>![F,=B,]D/) z/ [E,G,]4 | (!>![F,=B,]D/) z/ [E,G,]4 | z6 | z6 | %10
 (C/E/D/F/ EC D=B,) | (CE/) z/ !>![G,-=B,D]4 | [G,C]2 z4 | z6 | (C/E/D/F/ EC D=B,) | %15
 (CE/) z/ !>![G,-=B,D]4 | [G,C]2 z4 | z6 | (C/G/F/A/ GC DE) | (!>![F,=B,]D/) z/ [E,G,]4 | z6 | z6 | %22
 (C/G/F/A/ GC DE) | (!>![F,=B,]D/) z/ [E,G,]4 | z6 | z6 | %26
!<(! C/A/G/!mf!=B/!<)!!>(! cA!mp! G>!p!F!>)! |!pp! ([G,E]>[F,D] [E,C][D,G,] [E,C]2) | %28
!pp! !>![F,=B,]D/ z/ [E,G,]4 | !>![F,=B,]D/ z/ [E,G,]4 | z6 | z6 | (C/E/D/F/ EC D=B,) | %33
 (CE/) z/ !>![G,-=B,D]4 | [G,C]2 z4 | z6 | (C/E/D/F/ EC D=B,) | (CE/) z/ !>![G,-=B,D]4 | %38
 [G,C]2 z4 | z6 | (C/G/F/A/ GC DE) | (!>![F,=B,]D/) z/ [E,G,]4 | z6 | z6 | %44
!<(! (C/G/F/!f!A/!<)!!>(! G!mf!C!mp! D!p!E)!>)! |!pp! (!>![F,=B,]D/) z/ [E,G,]4 | z6 | z6 | %48
!<(! (C/A/G/!ff!=B/!<)!!f!!>(! c!mf!A!mp! G>!p!F)!>)! |!pp! ([G,E]>[F,D] [E,C][D,G,] [E,C]2) | %50
 (!>![F,=B,]D/) z/ [E,G,]4 | (!>![F,=B,]D/) z/ [E,G,]4 | (!>![F,=B,]D/) z/ [E,G,]4 | %53
 (!>![F,=B,]D/) z/ [E,G,]4 | (C/G/F/A/ GE CG) | z2 (!>![=B,D]2 [CE]2) | z2 (!>![=B,D]2 [CE]2) | %57
!f!!<(! C/A/G/=B/!<)!!>(! cA GE!>)! |!p! C/E/D/F/ EC D=B, |!pp! ((CE/)) z/ !>![G,-=B,D]4 | %60
 !fermata![E,G,C]6 |] %61
V:3
!pp!{/^F,,} [C,,G,,]6 |{/^F,,} [C,,G,,]6 | [C,,G,,]6 | [C,,G,,]6 | [C,,G,,]6 | [C,,G,,]6 | %6
 (D,2 C,4) | (D,2 C,4) | [C,,G,,]6 | [C,,G,,]6 | [C,,G,,]6 | [C,,G,,]6 | [C,,G,,]6 | [C,,G,,]6 | %14
 [C,,G,,]6 | [C,,G,,]6 | (C,4 =B,,2) | (C,2 =B,,4) | [C,,G,,C,]6 | (D,2 C,4) | (C,4 =B,,2) | %21
 (C,2 =B,,4) | (C,3 E, D,C,) | (D,2 C,4) | [C,,G,,]6 | [C,,G,,]6 | [C,,G,,]6 | [C,,G,,]6 | %28
 (D,2 C,4) | (D,2 C,4) | [C,,G,,]6 | [C,,G,,]6 | [C,,G,,]6 | [C,,G,,]6 | [C,,G,,]6 | [C,,G,,]6 | %36
 [C,,G,,]6 | [C,,G,,]6 | (C,4 =B,,2) | (C,2 =B,,4) | [C,,G,,C,]6 | (D,2 C,4) | (C,4 =B,,2) | %43
 (C,2 =B,,4) | (C,3 E, D,C,) | (D,2 C,4) | [C,,G,,]6 | [C,,G,,]6 | [C,,G,,]6 | [C,,G,,]6 | %50
 (D,2 C,4) | (D,2 C,4) | (D,2 C,4) | (D,2 C,4) | [C,,G,,]6 | [C,,G,,]6 | [C,,G,,]6 | [C,,G,,]6 | %58
 [C,,G,,]6 | [C,,G,,]6 | !fermata![C,,G,,]6 |] %61
V:4
 x6 | x6 | x6 | x6 | x6 | x6 | [C,,G,,]6 | [C,,G,,]6 | x6 | x6 | x6 | x6 | x6 | x6 | x6 | x6 | %16
 [C,,G,,]6 | [C,,G,,]6 | x6 | [C,,G,,]6 | [C,,G,,]6 | [C,,G,,]6 | [C,,G,,]6 | [C,,G,,]6 | x6 | x6 | %26
 x6 | x6 | [C,,G,,]6 | [C,,G,,]6 | x6 | x6 | x6 | x6 | x6 | x6 | x6 | x6 | [C,,G,,]6 | [C,,G,,]6 | %40
 x6 | [C,,G,,]6 | [C,,G,,]6 | [C,,G,,]6 | [C,,G,,]6 | [C,,G,,]6 | x6 | x6 | x6 | x6 | [C,,G,,]6 | %51
 [C,,G,,]6 | [C,,G,,]6 | [C,,G,,]6 | x6 | x6 | x6 | x6 | x6 | x6 | x6 |] %61
V:5
 x6 | x6 | x6 | x6 | x6 | x6 | x6 | x6 | x6 | x6 | x6 | x6 | x6 | x6 | x6 | x6 | x6 | x6 | x6 | %19
 x6 | x6 | x6 | x6 | x6 | x6 | x6 | x6 | x6 | x6 | x6 | x6 | x6 | x6 | x6 | x6 | x6 | x6 | x6 | %38
 x6 | x6 | x6 | x6 | x6 | x6 | x6 | x6 | x6 | x6 | x6 | x6 | x6 | x6 | x6 | x6 | x6 | G,6 | G,6 | %57
 x6 | x6 | x6 | x6 |] %61

